X: 1
T: Bachelor's Walk #2
M: 4/4
L: 1/8
R: reel
K: Ador
||:~e3~(A A2) (3Bcd|e2 ~a2 gedg|eAAG ABcA|BBAB ec^df|
|~e3~(A A2) (3Bcd|e2 ~a2 gedc|BA (3Bcd ~e3d|1cABG A2d2:|2cABG A2(3Bcd||
||:e2ab ~a3g|eaag ee^df|ee^df ee^df|(3efg fg gedg|
|e2ab ~a3g|eaag eedc|BA (3Bcd ~e3d|1cABG A2 (3Bcd:|2cABG A2d2||
